X: 100
T: Gei anmen xun xiage huilaohan
L: 1/8
M: 2/4
K: G
A G A B [I:setbarnb 1]| 
dA2G | 
A> G E G | 
D3A, | 
D> E G A | 
AG2E | 
G3E | 
D E D B, | 
A,4 |]

@@@ Tune index: 8974
